X:18
T:The boy in the gap
T:The boy in the gaf
R:Reel
O:Ireland
D:Chieftains 1 (?)
S:hnreel~1.abc
Z:Transcription:Henrik Norbeck, chords:Mike Long
M:C|
K:G
"D"D2 (3(FGA) dedc|"C"A2GE cEGE|"D"D2(3(FGA) dedc|"C"A2GE EFGE|\
"D"D2 (3(FGA) dedc|
"C"A2GE cEGE|"D"DEFA dedc|"C"A2GE "D"EDD2:|\
|:"D"~f3g fed2|"A"e2fd ed^cB|AB^cd e2cd|
eaag eaag|\
"D"~f3g fedf|"A"egfd ed^cB|AB^cd e2dB|[1 "A"A2GE "D"EDD2:|[2 "A"A2GE "C"EFGE|]
